icons/mobile/24/svg/location-24.svg

<svg width="24" height="24" viewBox="0 0 24 24" fill="none" xmlns="http://www.w3.org/2000/svg">
<path fill-rule="evenodd" clip-rule="evenodd" d="M12 7C14.068 7 15.75 8.682 15.75 10.75C15.75 12.818 14.068 14.5 12 14.5C9.932 14.5 8.25 12.818 8.25 10.75C8.25 8.682 9.932 7 12 7ZM12 8.75C10.897 8.75 10 9.647 10 10.75C10 11.853 10.897 12.75 12 12.75C13.103 12.75 14 11.853 14 10.75C14 9.647 13.103 8.75 12 8.75Z" fill="black"/>
<path fill-rule="evenodd" clip-rule="evenodd" d="M11.999 2C16.8313 2 20.75 5.9188 20.75 10.752C20.75 12.5508 19.6589 14.5651 18.4229 16.3105C17.1548 18.101 15.5976 19.793 14.4199 20.9844C13.0815 22.3374 10.9175 22.3375 9.5791 20.9844C8.40211 19.7932 6.84523 18.1009 5.57715 16.3105C4.34096 14.5652 3.24902 12.5508 3.24902 10.752C3.24905 5.91894 7.16657 2 11.999 2ZM11.999 3.75C8.1335 3.75 4.99905 6.88501 4.99902 10.752C4.99902 11.956 5.78362 13.5745 7.00488 15.2988C8.19421 16.978 9.6763 18.5931 10.8232 19.7539L10.9502 19.8701C11.6059 20.4119 12.5632 20.3731 13.1758 19.7539L13.6201 19.2979C14.6887 18.1882 15.9536 16.7682 16.9941 15.2988C18.2153 13.5745 19 11.9561 19 10.752C19 6.88515 15.8647 3.75 11.999 3.75Z" fill="black"/>
</svg>

<!-- This Source Code Form is subject to the terms of the Mozilla Public
   - License, v. 2.0. If a copy of the MPL was not distributed with this
   - file, You can obtain one at http://mozilla.org/MPL/2.0/. -->
<svg xmlns="http://www.w3.org/2000/svg" width="24" height="24" fill="none" viewBox="0 0 24 24">
    <path fill="#000" fill-rule="evenodd" d="M12 7a3.754 3.754 0 0 1 3.75 3.75A3.754 3.754 0 0 1 12 14.5a3.754 3.754 0 0 1-3.75-3.75A3.754 3.754 0 0 1 12 7m0 1.75c-1.103 0-2 .897-2 2s.897 2 2 2 2-.897 2-2-.897-2-2-2" clip-rule="evenodd" />
    <path fill="#000" fill-rule="evenodd" d="M11.999 2a8.75 8.75 0 0 1 8.751 8.752c0 1.799-1.091 3.813-2.327 5.559-1.268 1.79-2.825 3.482-4.003 4.673a3.394 3.394 0 0 1-4.84 0c-1.178-1.19-2.735-2.883-4.003-4.674-1.236-1.745-2.328-3.76-2.328-5.558A8.75 8.75 0 0 1 11.999 2m0 1.75c-3.866 0-7 3.135-7 7.002 0 1.204.785 2.823 2.006 4.547 1.19 1.679 2.671 3.294 3.818 4.455l.127.116a1.643 1.643 0 0 0 2.226-.116l.444-.456c1.069-1.11 2.334-2.53 3.374-4C18.215 13.576 19 11.957 19 10.753a7 7 0 0 0-7.001-7.002" clip-rule="evenodd" />
</svg>
